public/images/benefits/wallet_icon.svg

<svg width="38" height="34" viewBox="0 0 38 34" fill="none" xmlns="http://www.w3.org/2000/svg">
<path d="M33.9333 7.66662V3.93328C33.9333 1.87435 32.2589 0.199951 30.1999 0.199951H5.93325C2.84579 0.199951 0.333252 2.71248 0.333252 5.79995V28.1999C0.333252 32.3085 3.68205 33.7999 5.93325 33.7999H33.9333C35.9922 33.7999 37.6666 32.1255 37.6666 30.0666V11.4C37.6666 9.34102 35.9922 7.66662 33.9333 7.66662ZM30.1999 24.4666H26.4666V17H30.1999V24.4666ZM5.93325 7.66662C5.45262 7.64512 4.99881 7.43906 4.6663 7.09134C4.33379 6.74363 4.14822 6.28106 4.14822 5.79995C4.14822 5.31884 4.33379 4.85627 4.6663 4.50856C4.99881 4.16084 5.45262 3.95478 5.93325 3.93328H30.1999V7.66662H5.93325Z" fill="url(#paint0_linear_18_764)"/>
<defs>
<linearGradient id="paint0_linear_18_764" x1="7.13881" y1="50.2499" x2="53.6098" y2="10.0428" gradientUnits="userSpaceOnUse">
<stop stop-color="#982DEC"/>
<stop offset="0.572917" stop-color="#DC8DF8"/>
<stop offset="0.895833" stop-color="#A9C4F3"/>
</linearGradient>
</defs>
</svg>

<svg width="38" height="34" fill="none" xmlns="http://www.w3.org/2000/svg"><path d="M33.933 7.667V3.933A3.737 3.737 0 0 0 30.2.2H5.933a5.607 5.607 0 0 0-5.6 5.6v22.4c0 4.109 3.349 5.6 5.6 5.6h28a3.737 3.737 0 0 0 3.734-3.733V11.4a3.737 3.737 0 0 0-3.734-3.733Zm-3.733 16.8h-3.733V17H30.2v7.467ZM5.933 7.667a1.869 1.869 0 0 1 0-3.734H30.2v3.734H5.933Z" fill="url(#a)"/><defs><linearGradient id="a" x1="7.139" y1="50.25" x2="53.61" y2="10.043" gradientUnits="userSpaceOnUse"><stop stop-color="#982DEC"/><stop offset=".573" stop-color="#DC8DF8"/><stop offset=".896" stop-color="#A9C4F3"/></linearGradient></defs></svg>
